web/public/images/startup-logos/buildpass_white.svg

<svg width="243" height="40" viewBox="0 0 243 40" fill="none" xmlns="http://www.w3.org/2000/svg">
<path d="M51.0227 27.1C52.5227 29 42.7227 33.6 36.8237 33.6C41.5237 32.7 49.7227 28.7 49.7227 27.3V23.4C49.7227 23.3 49.7227 23.2 49.6227 23.1L49.4227 22.9L47.9227 22.5C47.9227 22.5 47.8227 22.5 47.8227 22.4V22.3C47.7227 18.3 46.7227 14.9 45.2227 12L26.9247 31.4C26.8247 31.5 26.6247 31.7 26.4247 31.7C26.2247 31.8 26.0247 31.8 25.8247 31.8C25.6247 31.8 25.4247 31.8 25.2247 31.7C25.0247 31.6 24.9247 31.5 24.7247 31.4L14.9267 22.3C14.7267 22.1 14.6267 21.9 14.6267 21.7C14.6267 21.5 14.7267 21.3 14.8267 21.1L18.2267 17.5C18.3267 17.4 18.4267 17.4 18.5267 17.3C18.6267 17.3 18.7267 17.2 18.8267 17.2C18.9267 17.2 19.0267 17.2 19.1267 17.3C19.2267 17.3 19.3267 17.4 19.4267 17.5L25.4257 23.1L25.5257 23.2H25.7257C25.7257 23.2 25.8257 23.2 25.8257 23.1L41.3237 6.9C38.3237 4 34.6237 2.1 31.4237 1.5H31.3237C31.3237 1.5 31.2237 1.5 31.2237 1.6C31.2237 1.6 31.2237 1.7 31.1237 1.7V1.8L31.7237 13.4L29.6247 1.3C29.5247 0.9 29.3247 0.6 29.1247 0.4C28.8247 0.2 28.5247 0 28.1247 0H23.7247C23.3247 0 23.0247 0.1 22.7247 0.4C22.4257 0.6 22.2257 1 22.2257 1.3L20.0257 13.4L20.6257 1.8V1.7C20.6257 1.7 20.6257 1.6 20.5257 1.6C20.5257 1.6 20.4257 1.6 20.4257 1.5H20.3257C13.3267 2.9 4.22767 9.9 4.02767 22.2C4.02767 22.3 4.02767 22.3 3.92767 22.3L3.82767 22.4L2.32767 22.8C2.22767 22.8 2.12767 22.9 2.12767 23C2.12767 23.1 2.02767 23.2 2.02767 23.3V27.2C2.02767 28.6 10.2277 32.6 14.9267 33.5C9.02667 33.5 -0.771328 28.9 0.728672 27C-2.67133 28.6 6.32767 36.2 17.3267 36.2H34.3247C45.4227 36.3 54.5217 28.7 51.0227 27.1Z" fill="white"/>
<path d="M85.8183 21.7001C85.8183 28.3001 81.2183 32.6001 75.0203 32.6001C72.1203 32.6001 69.6203 31.6001 68.0203 29.6001V32.3001H63.3213V2.8001H68.3213V13.6001C70.0213 11.7001 72.4203 10.8001 75.1203 10.8001C81.2193 10.8001 85.8183 15.1001 85.8183 21.7001V21.7001ZM80.7193 21.7001C80.7193 17.6001 78.0193 15.1001 74.4193 15.1001C70.8203 15.1001 68.1213 17.7001 68.1213 21.7001C68.1213 25.7001 70.8213 28.3001 74.4203 28.3001C78.0203 28.3001 80.7193 25.7001 80.7193 21.7001V21.7001ZM109.516 11.0001V32.2001H104.816V29.5001C103.217 31.4001 100.717 32.5001 98.0173 32.5001C92.6173 32.5001 88.9183 29.5001 88.9183 23.1001V11.0001H93.9183V22.5001C93.9183 26.4001 95.7183 28.2001 98.9173 28.2001C102.417 28.2001 104.716 26.1001 104.716 21.8001V11.0001H109.516V11.0001ZM113.715 4.6001C113.715 2.9001 115.115 1.6001 116.915 1.6001C118.715 1.6001 120.115 2.8001 120.115 4.5001C120.115 6.3001 118.815 7.6001 116.915 7.6001C115.115 7.5001 113.715 6.2001 113.715 4.6001ZM114.415 11.0001H119.415V32.2001H114.415V11.0001ZM124.314 2.8001H129.314V32.3001H124.314V2.8001V2.8001ZM155.01 2.8001V32.3001H150.211V29.6001C148.511 31.6001 146.111 32.6001 143.212 32.6001C137.012 32.6001 132.513 28.3001 132.513 21.7001C132.513 15.1001 137.112 10.8001 143.212 10.8001C145.911 10.8001 148.411 11.7001 150.011 13.7001V2.8001H155.01V2.8001ZM150.111 21.7001C150.111 17.6001 147.411 15.1001 143.812 15.1001C140.212 15.1001 137.512 17.7001 137.512 21.7001C137.512 25.7001 140.212 28.3001 143.812 28.3001C147.411 28.3001 150.111 25.7001 150.111 21.7001V21.7001Z" fill="white"/>
<path d="M182.507 21.7C182.507 28.3 177.908 32.6 171.708 32.6C169.009 32.6 166.609 31.7001 164.909 29.7001V40H159.91V11H164.609V13.8C166.309 11.8 168.709 10.8 171.608 10.8C177.908 10.8 182.507 15.1 182.507 21.7V21.7ZM177.408 21.7C177.408 17.6 174.708 15.1 171.108 15.1C167.509 15.1 164.809 17.7 164.809 21.7C164.809 25.7 167.509 28.3 171.108 28.3C174.708 28.3 177.408 25.7 177.408 21.7V21.7ZM203.105 19.8V32.3H198.405V29.7001C197.205 31.5001 194.906 32.6 191.706 32.6C186.807 32.6 183.807 29.9 183.807 26.2C183.807 22.7 186.207 19.9 192.606 19.9H198.105V19.6C198.105 16.7 196.305 15 192.806 15C190.406 15 187.906 15.8 186.407 17.1L184.507 13.5C186.807 11.7 190.106 10.9 193.506 10.9C199.605 10.8 203.105 13.7 203.105 19.8V19.8ZM198.205 25.6V23.1H193.006C189.606 23.1 188.706 24.4 188.706 25.9C188.706 27.7 190.206 28.8 192.806 28.8C195.206 28.9 197.305 27.8 198.205 25.6V25.6ZM205.504 30.2001L207.404 26.4C209.304 27.6 212.104 28.5 214.803 28.5C217.903 28.5 219.303 27.6 219.303 26.2C219.303 22.1 206.204 26 206.204 17.5C206.204 13.5 209.804 10.9 215.503 10.9C218.303 10.9 221.503 11.6 223.502 12.7L221.603 16.5C219.603 15.3 217.503 14.9 215.503 14.9C212.504 14.9 211.004 15.9 211.004 17.3C211.004 21.6 224.102 17.8 224.102 26.1C224.102 30.1 220.403 32.7001 214.503 32.7001C210.904 32.6001 207.404 31.5001 205.504 30.2001V30.2001ZM224.402 30.2001L226.302 26.4C228.202 27.6 231.001 28.5 233.701 28.5C236.801 28.5 238.2 27.6 238.2 26.2C238.2 22.1 225.102 26 225.102 17.5C225.102 13.5 228.702 10.9 234.401 10.9C237.201 10.9 240.4 11.6 242.4 12.7L240.5 16.5C238.5 15.3 236.401 14.9 234.401 14.9C231.401 14.9 229.901 15.9 229.901 17.3C229.901 21.6 243 17.8 243 26.1C243 30.1 239.3 32.7001 233.401 32.7001C229.801 32.6001 226.302 31.5001 224.402 30.2001Z" fill="white"/>
</svg>

<svg fill="none" height="40" width="243" xmlns="http://www.w3.org/2000/svg"><g fill="#fff"><path d="M51 27.1c1.5 1.9-8.3 6.5-14.2 6.5 4.7-.9 13-4.9 13-6.3v-3.9c0-.1 0-.2-.2-.3l-.2-.2-1.5-.4v-.2c-.2-4-1.2-7.4-2.7-10.3L27 31.4c0 .1-.3.3-.5.3l-.6.1-.6-.1-.5-.3-9.8-9.1-.3-.6.2-.6 3.4-3.6.3-.2.3-.1.3.1.3.2 6 5.6.1.1h.2l.1-.1L41.3 6.9c-3-2.9-6.7-4.8-9.9-5.4s-.2 0-.2.1v.2l.5 11.6-2-12.1a2 2 0 0 0-.6-.9c-.3-.2-.6-.4-1-.4h-4.4c-.4 0-.7.1-1 .4-.3.2-.5.6-.5.9L20 13.4l.6-11.6v-.2l-.2-.1C13.3 2.9 4.1 9.9 4 22.2v.1l-.2.1-1.5.4-.2.2v4.2c0 1.4 8.1 5.4 12.8 6.3C9 33.5-.8 28.9.7 27c-3.4 1.6 5.6 9.2 16.6 9.2h17c11.1.1 20.2-7.5 16.7-9.1zM85.8 21.7c0 6.6-4.6 10.9-10.8 10.9-2.9 0-5.4-1-7-3v2.7h-4.7V2.8h5v10.8a8.8 8.8 0 0 1 6.8-2.8c6.1 0 10.7 4.3 10.7 10.9zm-5 0c0-4.1-2.8-6.6-6.4-6.6-3.6 0-6.3 2.6-6.3 6.6s2.7 6.6 6.3 6.6c3.6 0 6.3-2.6 6.3-6.6zM109.4 11v21.2h-4.7v-2.7a8.8 8.8 0 0 1-6.8 3c-5.4 0-9-3-9-9.4V11h5v11.5c0 3.9 1.7 5.7 5 5.7 3.4 0 5.7-2.1 5.7-6.4V11zm4.2-6.4c0-1.7 1.4-3 3.2-3s3.2 1.2 3.2 2.9c0 1.8-1.3 3.1-3.2 3.1-1.8-.1-3.2-1.4-3.2-3zm.7 6.4h5v21.2h-5zm10-8.2h5v29.5h-5zm30.6 0v29.5h-4.8v-2.7c-1.7 2-4 3-7 3-6.2 0-10.7-4.3-10.7-10.9s4.6-10.9 10.7-10.9c2.7 0 5.2.9 6.8 2.9V2.8zm-4.9 18.9c0-4.1-2.7-6.6-6.3-6.6-3.6 0-6.3 2.6-6.3 6.6s2.7 6.6 6.3 6.6c3.6 0 6.3-2.6 6.3-6.6zM182.5 21.7c0 6.6-4.6 10.9-10.8 10.9-2.7 0-5-.9-6.8-2.9V40h-5V11h4.7v2.8c1.7-2 4.1-3 7-3 6.3 0 11 4.3 11 10.9zm-5 0c0-4.1-2.8-6.6-6.4-6.6-3.6 0-6.3 2.6-6.3 6.6s2.7 6.6 6.3 6.6c3.6 0 6.3-2.6 6.3-6.6zm25.6-1.9v12.5h-4.7v-2.6c-1.2 1.8-3.5 2.9-6.7 2.9-4.9 0-7.9-2.7-7.9-6.4 0-3.5 2.4-6.3 8.8-6.3h5.5v-.3c0-2.9-1.8-4.6-5.3-4.6-2.4 0-4.9.8-6.4 2.1l-1.9-3.6c2.3-1.8 5.6-2.6 9-2.6 6.1-.1 9.6 2.8 9.6 8.9zm-4.9 5.8v-2.5H193c-3.4 0-4.3 1.3-4.3 2.8 0 1.8 1.5 2.9 4.1 2.9 2.4.1 4.5-1 5.4-3.2zm7.3 4.6 1.9-3.8c1.9 1.2 4.7 2.1 7.4 2.1 3.1 0 4.5-.9 4.5-2.3 0-4.1-13.1-.2-13.1-8.7 0-4 3.6-6.6 9.3-6.6 2.8 0 6 .7 8 1.8l-1.9 3.8c-2-1.2-4.1-1.6-6.1-1.6-3 0-4.5 1-4.5 2.4 0 4.3 13.1.5 13.1 8.8 0 4-3.7 6.6-9.6 6.6-3.6-.1-7.1-1.2-9-2.5zm18.9 0 1.9-3.8c1.9 1.2 4.7 2.1 7.4 2.1 3.1 0 4.5-.9 4.5-2.3 0-4.1-13.1-.2-13.1-8.7 0-4 3.6-6.6 9.3-6.6 2.8 0 6 .7 8 1.8l-1.9 3.8c-2-1.2-4.1-1.6-6.1-1.6-3 0-4.5 1-4.5 2.4 0 4.3 13.1.5 13.1 8.8 0 4-3.7 6.6-9.6 6.6-3.6-.1-7.1-1.2-9-2.5z"/></g></svg>
